!!!COM: Music21
!!!OTL: De mañanciña
!!!OMV: pezas_alalas_de-manancina_de-manancina-partitura.musicxml
**kern
*I"Gaita
*I'Bag
*clefG^2
*k[]
*M2/4
*MM48
=1
!LO:TX:a:t=[quarter]=48
4r
8eeL
8ffJ
=||
8ggL
8ffJ
8ddL
8ffJ
=
8.ffL
32ggLL
32ffJJJ
[4ee
=
2ee_
=
4ee]
8ggL
8ffJ
=
8eeL
8aaJ
8aaL
8ggJ
=
8bbL
16ggL
16ffJJ
[4dd
=
4dd]
8eeL
8ffJ
=
8ggL
8ffJ
8ddL
8ffJ
!!linebreak:original
=
8.ffL
32ggLL
32ffJJJ
[4ee
=
4ee]
8cccL
8bbJ
=
8cccL
8eeJ
8ffL
8ggJ
!!linebreak:original
=
8.bbL
32cccLL
32bbJJJ
[4aa
=
4aa]
8dddL
8cccJ
=
8bbL
8aaJ
8bbL
8cccJ
=
8.ggL
16ffJk
[4ee
=
4ee]
8cccL
8bbJ
=
8cccL
8eeJ
8ffL
8ggJ
=
[2ddd
=
4ddd]
8bbL
8cccJ
=
8ggL
8eeJ
8ffL
8ggJ
=
8.ffL
32ggLL
32ffJJJ
[4ee
!!linebreak:original
=
4ee]
8eeL
8ffJ
=||
8ggL
8ffJ
8ddL
8ffJ
=
8.ffL
32ggLL
32ffJJJ
[4ee
=
2ee_
=
4ee]
8ggL
8ffJ
=
8eeL
8aaJ
8aaL
8ggJ
=
8bbL
16ggL
16ffJJ
[4dd
=
4dd]
8eeL
8ffJ
=
8ggL
8ffJ
8ddL
8ffJ
=
8.ffL
32ggLL
32ffJJJ
[4ee
!!linebreak:original
=
4ee]
8cccL
8bbJ
=
8cccL
8eeJ
8ffL
8ggJ
!!linebreak:original
=
8.bbL
32cccLL
32bbJJJ
[4aa
=
4aa]
8dddL
8cccJ
=
8bbL
8aaJ
8bbL
8cccJ
=
8.ggL
16ffJk
[4ee
=
4ee]
8cccL
8bbJ
=
8cccL
8eeJ
8ffL
8ggJ
=
[2ddd
=
4ddd]
8bbL
8cccJ
=
8ggL
8eeJ
8ffL
8ggJ
=
8.ffL
32ggLL
32ffJJJ
[4ee
!!linebreak:original
=
4ee;]
4r
==
*-
